vsi/console_dark.svg

<svg viewBox="0 0 16 16" fill="none" xmlns="http://www.w3.org/2000/svg" height="1em" width="1em">
  <path fill-rule="evenodd" clip-rule="evenodd" d="M1 1H15V15H1V1ZM2 14H14V2H2V14ZM4.00008 5.70709L4.70718 4.99999L8.24272 8.53552L7.53561 9.24263L7.53558 9.2426L4.70711 12.0711L4 11.364L6.82848 8.53549L4.00008 5.70709Z" fill="#C5C5C5"/>
</svg>

<svg viewBox="0 0 16 16" fill="none" xmlns="http://www.w3.org/2000/svg" height="1em" width="1em">
  <path fill-rule="evenodd" clip-rule="evenodd" d="M1 1h14v14H1V1Zm1 13h12V2H2v12Zm2-8.293L4.707 5l3.536 3.536-.707.707-2.829 2.828L4 11.364l2.828-2.829L4 5.707Z" fill="#C5C5C5"/>
</svg>
